dist/img/skills/software/figma.svg

<svg width="128" height="128" viewBox="0 0 128 128" fill="none" xmlns="http://www.w3.org/2000/svg">
<g opacity="0.32">
<path d="M47.3601 5.12C35.3729 5.12 25.6001 14.8928 25.6001 26.88C25.6001 35.3287 30.5919 42.4777 37.6551 46.08C30.5919 49.6823 25.6001 56.8312 25.6001 65.28C25.6001 73.7287 30.5919 80.8777 37.6551 84.48C30.5919 88.0823 25.6001 95.2312 25.6001 103.68C25.6001 115.667 35.3729 125.44 47.3601 125.44C59.3472 125.44 69.1201 115.667 69.1201 103.68V84.48V75.92C72.554 82.4364 79.1862 87.04 87.0401 87.04C98.3206 87.04 107.52 77.8405 107.52 66.56C107.52 57.2883 101.187 49.7374 92.7101 47.23C101.257 44.2924 107.52 36.4038 107.52 26.88C107.52 14.8928 97.7472 5.12 85.7601 5.12H66.5601H47.3601ZM47.3601 10.24H64.0001V43.52H47.3601C38.1402 43.52 30.7201 36.0999 30.7201 26.88C30.7201 17.6601 38.1402 10.24 47.3601 10.24ZM69.1201 10.24H85.7601C94.98 10.24 102.4 17.6601 102.4 26.88C102.4 36.0999 94.98 43.52 85.7601 43.52H69.1201V10.24ZM47.3601 48.64H64.0001V81.92H47.3601C38.1402 81.92 30.7201 74.4999 30.7201 65.28C30.7201 56.0601 38.1402 48.64 47.3601 48.64ZM69.1201 48.64H77.6801C74.0067 50.5757 71.0558 53.5266 69.1201 57.2V48.64ZM87.0401 51.2C95.5535 51.2 102.4 58.0466 102.4 66.56C102.4 75.0734 95.5535 81.92 87.0401 81.92C78.5267 81.92 71.6801 75.0734 71.6801 66.56C71.6801 58.0466 78.5267 51.2 87.0401 51.2ZM47.3601 87.04H64.0001V103.68C64.0001 112.9 56.58 120.32 47.3601 120.32C38.1402 120.32 30.7201 112.9 30.7201 103.68C30.7201 94.4601 38.1402 87.04 47.3601 87.04Z" fill="#F8F8FF"/>
</g>
</svg>

<svg width="128" height="128" fill="none" xmlns="http://www.w3.org/2000/svg"><path d="M47.36 5.12c-11.987 0-21.76 9.773-21.76 21.76 0 8.449 4.992 15.598 12.055 19.2C30.592 49.682 25.6 56.831 25.6 65.28s4.992 15.598 12.055 19.2C30.592 88.082 25.6 95.231 25.6 103.68c0 11.987 9.773 21.76 21.76 21.76 11.987 0 21.76-9.773 21.76-21.76V75.92c3.434 6.516 10.066 11.12 17.92 11.12 11.28 0 20.48-9.2 20.48-20.48 0-9.272-6.333-16.823-14.81-19.33 8.547-2.938 14.81-10.826 14.81-20.35 0-11.987-9.773-21.76-21.76-21.76h-38.4zm0 5.12H64v33.28H47.36c-9.22 0-16.64-7.42-16.64-16.64s7.42-16.64 16.64-16.64zm21.76 0h16.64c9.22 0 16.64 7.42 16.64 16.64s-7.42 16.64-16.64 16.64H69.12V10.24zm-21.76 38.4H64v33.28H47.36c-9.22 0-16.64-7.42-16.64-16.64s7.42-16.64 16.64-16.64zm21.76 0h8.56a20.338 20.338 0 00-8.56 8.56v-8.56zm17.92 2.56c8.513 0 15.36 6.847 15.36 15.36 0 8.513-6.847 15.36-15.36 15.36a15.321 15.321 0 01-15.36-15.36c0-8.513 6.847-15.36 15.36-15.36zM47.36 87.04H64v16.64c0 9.22-7.42 16.64-16.64 16.64s-16.64-7.42-16.64-16.64 7.42-16.64 16.64-16.64z" fill="#F8F8FF" opacity=".32"/></svg>
